X: 1
T: Scalloway Voe
C: Ronnie Cooper
F: http://www.thesession.org/tunes/display/4599 2009-6-4
M: 3/4
L: 1/8
R: waltz
K: G
D2 | B4 d2 | B4 A2 | G2 F2 E2 | D4 D2 | c4 c2 | B4 d2 | d2 c2 B2 | A4 D2 |
     B4 d2 | B4 A2 | G2 F2 E2 | D4 c2 | B2 d4 | A4 B2 | G6-      | G4   :|
d2 | g6    | d4 G2 | c2 d2 e2 | d4 d2 | g6    | B4 d2 | d2 c2 B2 | A4 d2 |
     g6    | d4 G2 | c2 d2 e2 | d4 c2 | B2 d4 | A4 B2 | G6-      | G4   ||
d2 | g6    | d4 G2 | c2 d2 e2 | d4 d2 | g6    | B4 d2 | d2 c2 B2 | A4 D2 |
     B4 d2 | B4 A2 | G2 F2 E2 | D4 c2 | B2 d4 | A4 B2 | G6-      | G4   |]
